svg/fluentui-system-icons/ic_fluent_location_off_20_regular.svg

<svg width="20" height="20" viewBox="0 0 20 20" fill="none" xmlns="http://www.w3.org/2000/svg">
<path d="M2.14645 2.14645C2.34171 1.95118 2.65829 1.95118 2.85355 2.14645L17.8536 17.1464C18.0488 17.3417 18.0488 17.6583 17.8536 17.8536C17.6583 18.0488 17.3417 18.0488 17.1464 17.8536L14.0938 14.8009L13.8223 15.0691L11.3861 17.4391C10.6562 18.1455 9.52168 18.1847 8.74691 17.5567L8.61408 17.4389L6.57128 15.4538L5.05025 13.955C2.60742 11.5111 2.34753 7.71028 4.27056 4.97765L2.14645 2.85355C1.95118 2.65829 1.95118 2.34171 2.14645 2.14645ZM11.0777 11.7848C10.7435 11.9139 10.3802 11.9847 10.0005 11.9847C8.34839 11.9847 7.00909 10.6448 7.00909 8.99195C7.00909 8.6125 7.07967 8.24955 7.20843 7.91552L4.98793 5.69502C3.49206 7.95827 3.68917 11.0117 5.57927 13.0667L5.75499 13.2499L6.3263 13.817L9.30713 16.7224L9.40012 16.802C9.7543 17.0698 10.2459 17.0699 10.6002 16.8021L10.6931 16.7225L12.9237 14.5539L13.3883 14.0954L11.0777 11.7848ZM11.8541 9.73275L12.5983 10.4769C12.8487 10.0393 12.9919 9.53236 12.9919 8.99195C12.9919 7.33911 11.6526 5.99923 10.0005 5.99923C9.45986 5.99923 8.95271 6.14271 8.51504 6.3937L9.25921 7.13787C9.48839 7.04608 9.73855 6.99559 10.0005 6.99559C11.1026 6.99559 11.996 7.88939 11.996 8.99195C11.996 9.25371 11.9456 9.5037 11.8541 9.73275ZM6.35291 4.23157C8.70671 2.42616 12.0908 2.60103 14.245 4.75619C16.3986 6.91072 16.5739 10.2949 14.771 12.6497L15.4812 13.3599C17.6702 10.6106 17.493 6.59551 14.9497 4.05115C12.4058 1.50605 8.39081 1.32945 5.64269 3.52136L6.35291 4.23157Z" fill="#212121"/>
</svg>

<svg xmlns="http://www.w3.org/2000/svg" width="20" height="20"><path d="M2.146 2.146a.5.5 0 0 1 .708 0l15 15a.5.5 0 0 1-.708.708L14.094 14.8l-.272.268-2.436 2.37a1.993 1.993 0 0 1-2.64.118l-.132-.118-2.043-1.985-1.52-1.499a7.007 7.007 0 0 1-.78-8.977L2.146 2.854a.5.5 0 0 1 0-.708Zm8.932 9.639a2.992 2.992 0 0 1-3.87-3.87l-2.22-2.22a6.01 6.01 0 0 0 .591 7.372l.176.183.571.567 2.981 2.905.093.08a.997.997 0 0 0 1.2 0l.093-.08 2.23-2.168.465-.459-2.31-2.31Zm.776-2.052.744.744a2.992 2.992 0 0 0-4.083-4.083l.744.744a1.996 1.996 0 0 1 2.595 2.595ZM6.353 4.232a6.003 6.003 0 0 1 7.892.524 6.01 6.01 0 0 1 .526 7.894l.71.71a7.006 7.006 0 0 0-.531-9.309 6.999 6.999 0 0 0-9.307-.53l.71.71Z"/></svg>
